X:24
T:The winter it is past and the summer's come at last
Z:Jack Campin, http://www.campin.me.uk/
F:Jack Campin's Nine-Note Tunebook
% last edit 03-02-2013
S:Blaikie MS (NLS MS.1578) p28, Blaikie #87
M:C
L:1/8
Q:1/4=90
K:CMix
D2|C2 DE F2 B>A|GF`GD C2 F2|G2 AB c2 Bd|G4 z2
F2|G2 AB c2 BA |GF`GD C2 DE|F2 BA GF`GD|C4 z2|]

